X:509
T:Shoemaker's Fancy, The
T:Hills of Larraga, The
R:jig
S:Recording of Eddie Clarke from Miltown Malbay 1984
H:See also The Kilfinane Jig / When You Go Home (#382),
H:The Humours Of Ayle House (#395)
Z:id:hn-jig-509
M:6/8
L:1/8
K:Dmix
g | fdd cAA | dcA A2g | fdd cAA | dcA G2g |
fdd ed^c | d^cA d2e | faf ded | cAF G2 :|
|: B | cAA fed | cAB c2d | cAA fed | cAF G2B |
cAA fed | cAB cde | faf ded | cAF G2 :|

